papirus/16x16/mimetypes/application-vnd.android.package-archive.svg

<?xml version="1.0" encoding="UTF-8" standalone="no"?>
<svg
   xmlns:dc="http://purl.org/dc/elements/1.1/"
   xmlns:cc="http://creativecommons.org/ns#"
   xmlns:rdf="http://www.w3.org/1999/02/22-rdf-syntax-ns#"
   xmlns:svg="http://www.w3.org/2000/svg"
   xmlns="http://www.w3.org/2000/svg"
   xmlns:sodipodi="http://sodipodi.sourceforge.net/DTD/sodipodi-0.dtd"
   xmlns:inkscape="http://www.inkscape.org/namespaces/inkscape"
   id="svg2"
   height="16px"
   width="16px"
   version="1.1"
   viewBox="0 0 16 16"
   inkscape:version="0.91 r"
   sodipodi:docname="application-vnd.android.package-archive.svg">
  <defs
     id="defs11" />
  <sodipodi:namedview
     pagecolor="#ffffff"
     bordercolor="#666666"
     borderopacity="1"
     objecttolerance="10"
     gridtolerance="10"
     guidetolerance="10"
     inkscape:pageopacity="0"
     inkscape:pageshadow="2"
     inkscape:window-width="1535"
     inkscape:window-height="876"
     id="namedview9"
     showgrid="false"
     inkscape:zoom="1"
     inkscape:cx="8"
     inkscape:cy="5.6374903"
     inkscape:window-x="65"
     inkscape:window-y="24"
     inkscape:window-maximized="1"
     inkscape:current-layer="svg2" />
  <metadata
     id="metadata17">
    <rdf:RDF>
      <cc:Work
         rdf:about="">
        <dc:format>image/svg+xml</dc:format>
        <dc:type
           rdf:resource="http://purl.org/dc/dcmitype/StillImage" />
      </cc:Work>
    </rdf:RDF>
  </metadata>
  <path
     style="fill:#a1c538"
     inkscape:connector-curvature="0"
     d="M 2.75,1 C 2.33276,1 2,1.33276 2,1.75 l 0,13.5 C 2,15.667192 2.332808,16 2.75,16 l 10.5,0 C 13.6676,16 14,15.6676 14,15.25 L 14,5.5 9.875,5.125 9.5,1 Z"
     id="path5" />
  <path
     style="fill:#d7f57a"
     inkscape:connector-curvature="0"
     d="m 9.5,1 0,3.75 c 0,0.41256 0.33744,0.75 0.75,0.75 l 3.75,0 z"
     id="path7" />
  <path
     style="fill:#ffffff"
     d="M 6.0214844 5.4882812 C 6.0006844 5.4828513 5.9784906 5.483717 5.9628906 5.5 C 5.9315576 5.521845 5.9212646 5.5655307 5.9472656 5.6035156 L 6.375 6.2167969 C 5.6979333 6.5319493 5.0625334 7.3042994 5 8 L 10 8 C 9.937467 7.3042994 9.2187412 6.5319493 8.546875 6.2167969 L 8.96875 5.6035156 C 8.99475 5.5655306 8.989659 5.5218449 8.953125 5.5 C 8.921925 5.472868 8.8756097 5.4833604 8.8496094 5.5214844 L 8.4121094 6.1621094 C 8.120376 6.0480145 7.7975177 5.984375 7.4589844 5.984375 C 7.1204376 5.984375 6.7962324 6.0479659 6.5097656 6.1621094 L 6.0683594 5.5214844 C 6.0579594 5.5050654 6.0370844 5.4882812 6.0214844 5.4882812 z M 6.25 7 C 6.3867 7 6.5 7.1133 6.5 7.25 C 6.5 7.3867 6.3867 7.5 6.25 7.5 C 6.1133 7.5 6 7.3867 6 7.25 C 6 7.1133 6.1094 7 6.25 7 z M 8.75 7 C 8.8867 7 9 7.1133 9 7.25 C 9 7.3867 8.8867 7.5 8.75 7.5 C 8.6133 7.5 8.5 7.3867 8.5 7.25 C 8.5 7.1133 8.6094 7 8.75 7 z M 4.5214844 9 C 4.2350844 9 4 9.2298839 4 9.5058594 L 4 11.490234 C 4 11.771543 4.2350844 12 4.5214844 12 C 4.8080177 12 5 11.771543 5 11.490234 L 5 12.880859 C 5 13.109048 5.2662446 13.259766 5.5 13.259766 L 6 13.259766 L 6 14.570312 C 6 14.854159 6.2499653 15 6.5 15 C 6.7500348 15 7.0379852 14.854159 7 14.570312 L 7 13.259766 L 8 13.259766 L 8 14.570312 C 8 14.854159 8.2499653 15 8.5 15 C 8.7500348 15 9.0162794 14.854159 9 14.570312 L 9 13.261719 L 9.5 13.261719 C 9.733755 13.261719 9.9638273 13.106164 10 12.880859 L 10 11.490234 C 10 11.771543 10.235084 12 10.521484 12 C 10.808017 12 11 11.771543 11 11.490234 L 11 9.5058594 C 11 9.2301506 10.813217 9 10.521484 9 C 10.235084 9 10 9.2298839 10 9.5058594 L 10 9 L 5 9 L 5 9.5058594 C 5 9.2301506 4.8132177 9 4.5214844 9 z "
     id="path4153" />
  <path
     style="fill:#ffffff;fill-opacity:0.10196001"
     inkscape:connector-curvature="0"
     d="M 2.75,1 C 2.33276,1 2,1.33276 2,1.75 l 0,0.6 C 2,1.93276 2.33276,1.6 2.75,1.6 l 6.75,0 0,-0.6 z"
     id="path11" />
</svg>

<?xml version="1.0" encoding="UTF-8" standalone="no"?>
<svg id="svg2" xmlns:rdf="http://www.w3.org/1999/02/22-rdf-syntax-ns#" xmlns="http://www.w3.org/2000/svg" height="16px" width="16px" version="1.1" xmlns:cc="http://creativecommons.org/ns#" viewBox="0 0 16 16" xmlns:dc="http://purl.org/dc/elements/1.1/">
 <metadata id="metadata17">
  <rdf:RDF>
   <cc:Work rdf:about="">
    <dc:format>image/svg+xml</dc:format>
    <dc:type rdf:resource="http://purl.org/dc/dcmitype/StillImage"/>
   </cc:Work>
  </rdf:RDF>
 </metadata>
 <path id="path5" fill="#a1c538" d="m2.75 1c-0.4172 0-0.75 0.3328-0.75 0.75v13.5c0 0.417 0.3328 0.75 0.75 0.75h10.5c0.418 0 0.75-0.332 0.75-0.75v-9.75l-4.125-0.375-0.375-4.125z"/>
 <path id="path7" fill="#d7f57a" d="m9.5 1v3.75c0 0.41256 0.33744 0.75 0.75 0.75h3.75z"/>
 <path id="path4153" fill="#fff" d="m6.0215 5.4883c-0.0208-0.0054-0.043-0.0046-0.0586 0.0117-0.0313 0.0218-0.0416 0.0655-0.0156 0.1035l0.4277 0.6133c-0.6771 0.3151-1.3125 1.0875-1.375 1.7832h5c-0.0625-0.6957-0.7813-1.4681-1.4531-1.7832l0.4219-0.6133c0.026-0.038 0.0209-0.0817-0.0157-0.1035-0.0312-0.0271-0.0775-0.0166-0.1035 0.0215l-0.4375 0.6406c-0.2917-0.1141-0.6146-0.1777-0.9531-0.1777-0.3386 0-0.6628 0.0636-0.9492 0.1777l-0.4414-0.6406c-0.0104-0.0164-0.0313-0.0332-0.0469-0.0332zm0.2285 1.5117c0.1367 0 0.25 0.1133 0.25 0.25s-0.1133 0.25-0.25 0.25-0.25-0.1133-0.25-0.25 0.1094-0.25 0.25-0.25zm2.5 0c0.1367 0 0.25 0.1133 0.25 0.25s-0.1133 0.25-0.25 0.25-0.25-0.1133-0.25-0.25 0.1094-0.25 0.25-0.25zm-4.2285 2c-0.2864 0-0.5215 0.2299-0.5215 0.5059v1.9841c0 0.282 0.2351 0.51 0.5215 0.51 0.2865 0 0.4785-0.228 0.4785-0.51v1.391c0 0.228 0.2662 0.379 0.5 0.379h0.5v1.31c0 0.284 0.25 0.43 0.5 0.43s0.538-0.146 0.5-0.43v-1.31h1v1.31c0 0.284 0.25 0.43 0.5 0.43s0.5163-0.146 0.5-0.43v-1.308h0.5c0.2338 0 0.4638-0.156 0.5-0.381v-1.391c0 0.282 0.235 0.51 0.521 0.51 0.287 0 0.479-0.228 0.479-0.51v-1.9841c0-0.2757-0.187-0.5059-0.479-0.5059-0.286 0-0.521 0.2299-0.521 0.5059v-0.5059h-5v0.5059c0-0.2757-0.1868-0.5059-0.4785-0.5059z"/>
 <path id="path11" fill-opacity=".10196" fill="#fff" d="m2.75 1c-0.4172 0-0.75 0.3328-0.75 0.75v0.6c0-0.4172 0.3328-0.75 0.75-0.75h6.75v-0.6z"/>
</svg>
